src/assets/img/icons/duotone-icons/Home/Towel.svg

<?xml version="1.0" encoding="UTF-8"?>
<svg width="24px" height="24px" viewBox="0 0 24 24" version="1.1" xmlns="http://www.w3.org/2000/svg" xmlns:xlink="http://www.w3.org/1999/xlink">
    <!-- Generator: Sketch 52.2 (67145) - http://www.bohemiancoding.com/sketch -->
    <title>Stockholm-icons / Home / Towel</title>
    <desc>Created with Sketch.</desc>
    <g id="Stockholm-icons-/-Home-/-Towel" stroke="none" stroke-width="1" fill="none" fill-rule="evenodd">
        <rect id="bound" x="0" y="0" width="24" height="24"></rect>
        <path d="M18,16 L9,16 C8.44771525,16 8,15.5522847 8,15 C8,14.4477153 8.44771525,14 9,14 L17,14 C17.5522847,14 18,13.5522847 18,13 C18,12.4477153 17.5522847,12 17,12 L9,12 C7.34314575,12 6,13.3431458 6,15 C6,16.6568542 7.34314575,18 9,18 L19.5,18 C21,18 21,18.5 21,19 C21,19.5 21,20 19.5,20 L7,20 C4.790861,20 3,18.209139 3,16 L3,8 C3,5.790861 4.790861,4 7,4 L17,4 C19.209139,4 21,5.790861 21,8 L21,13.0000005 C21,14.6568542 19.6568542,16 18,16 Z" id="Combined-Shape" fill="#335EEA"></path>
    </g>
</svg>

<svg width="24" height="24" viewBox="0 0 24 24" xmlns="http://www.w3.org/2000/svg"><g fill="none" fill-rule="evenodd"><path d="M0 0h24v24H0z"/><path d="M18 16H9a1 1 0 010-2h8a1 1 0 000-2H9a3 3 0 000 6h10.5c1.5 0 1.5.5 1.5 1s0 1-1.5 1H7a4 4 0 01-4-4V8a4 4 0 014-4h10a4 4 0 014 4v5a3 3 0 01-3 3z" fill="#335EEA"/></g></svg>
